X:823
T:Rory O'More
R:Country Dance
B:The Athole Collection
M:6/8
L:1/8
K:A
f|eAA cAA|eAA Aaf|edc cBA|GBB B2f|eAA cAA|eAA f2e/d/|cde efg|aAA A2:|
|:a|agf fcc|dcB A2G|FGA ABc|cfe e2a|agf fcc|dcB A2 A/G/|FGA ABc|cfe e2:|
T:Rory O'More
L:1/8
M:6/8
K:A
eAA cAA|eAA F3|edc cBA|GBB Bcd|ecA cBA|ece fed|cde efg|a2A A3:|
|:agf fcc|dcB A2G|FGA ABc|Bee efg|agf f2c|dcB A2G|FGA ABc|Bee e2f:|


